telier/img/star.svg

<svg width="11" height="10" viewBox="0 0 11 10" fill="none" xmlns="http://www.w3.org/2000/svg">
<path d="M5.66261 0C5.86126 0 6.04287 0.112043 6.13171 0.289417L7.48425 2.98984L10.4583 3.42168C10.6558 3.45036 10.8199 3.58849 10.8816 3.77801C10.9433 3.96752 10.8918 4.17555 10.7489 4.31466L8.58439 6.42144L9.0713 9.39189C9.10348 9.5882 9.02144 9.78577 8.85955 9.90177C8.69767 10.0178 8.48392 10.0322 8.3079 9.93892L5.66261 8.53772L3.01733 9.93892C2.8413 10.0322 2.62755 10.0178 2.46567 9.90177C2.30379 9.78577 2.22174 9.5882 2.25392 9.39189L2.74084 6.42144L0.576304 4.31466C0.433385 4.17555 0.381956 3.96752 0.443636 3.77801C0.505317 3.58849 0.669412 3.45036 0.866942 3.42168L3.84097 2.98984L5.19352 0.289417C5.28236 0.112043 5.46396 0 5.66261 0ZM5.66261 1.69428L4.65665 3.70273C4.5799 3.85597 4.43289 3.96203 4.26305 3.98669L2.06919 4.30525L3.66865 5.86204C3.79121 5.98133 3.84775 6.15282 3.8201 6.32146L3.45987 8.51912L5.41679 7.48254C5.57052 7.40111 5.7547 7.40111 5.90844 7.48254L7.86536 8.51912L7.50512 6.32146C7.47748 6.15282 7.53401 5.98133 7.65657 5.86204L9.25604 4.30525L7.06218 3.98669C6.89234 3.96203 6.74533 3.85597 6.66857 3.70273L5.66261 1.69428Z" fill="#0047FF"/>
</svg>

<svg width="11" height="10" fill="none" xmlns="http://www.w3.org/2000/svg"><path d="M5.663 0c.198 0 .38.112.469.29l1.352 2.7 2.974.432a.524.524 0 01.29.893L8.585 6.42l.487 2.97a.523.523 0 01-.763.548l-2.646-1.4-2.646 1.4a.525.525 0 01-.763-.546l.487-2.97L.576 4.314a.523.523 0 01.29-.893l2.975-.432L5.194.29A.525.525 0 015.663 0zm0 1.694L4.657 3.703a.524.524 0 01-.394.284l-2.194.318 1.6 1.557c.122.12.179.29.151.46l-.36 2.197 1.957-1.036a.525.525 0 01.491 0l1.957 1.036-.36-2.198a.523.523 0 01.152-.459l1.599-1.557-2.194-.318a.524.524 0 01-.393-.284L5.663 1.694z" fill="#0047FF"/></svg>
